dist/bmr/assets/star-streaks.svg

<svg width="339" height="332" viewBox="0 0 339 332" fill="none" xmlns="http://www.w3.org/2000/svg">
<path fill-rule="evenodd" clip-rule="evenodd" d="M78.5914 198.311L293.467 318.136C293.949 318.405 294.559 318.233 294.827 317.748C295.09 317.276 294.929 316.68 294.467 316.404L83.2574 190.229C81.0448 188.905 78.1788 189.629 76.8579 191.841C75.536 194.055 76.2583 196.92 78.4719 198.242L78.5914 198.311Z" fill="#1E3A3F"/>
<path fill-rule="evenodd" clip-rule="evenodd" d="M76.7462 191.862C76.7722 191.817 76.7982 191.772 76.8259 191.728C78.1877 189.537 81.0693 188.866 83.2572 190.229C81.0453 188.908 78.1786 189.629 76.8577 191.841C76.8457 191.862 76.8329 191.88 76.8209 191.901C75.5479 194.106 76.2761 196.932 78.4717 198.241L78.5912 198.31L78.3262 198.157C76.1813 196.824 75.4932 194.032 76.7462 191.862Z" fill="#EBF1F4"/>
<path fill-rule="evenodd" clip-rule="evenodd" d="M76.822 191.901C76.834 191.88 76.845 191.861 76.857 191.84C78.1796 189.629 81.0456 188.905 83.2582 190.229L178.42 249.404C178.861 249.679 179.022 250.257 178.774 250.723L178.757 250.753C178.488 251.219 177.897 251.39 177.42 251.136L78.5922 198.311L78.471 198.241C76.2781 196.931 75.549 194.106 76.822 191.901Z" fill="#306D71"/>
<mask id="mask0" mask-type="alpha" maskUnits="userSpaceOnUse" x="60" y="175" width="37" height="37">
<path fill-rule="evenodd" clip-rule="evenodd" d="M73.3706 175.001L60.1728 197.86L83.0324 211.058L96.2302 188.199L73.3706 175.001Z" fill="white"/>
</mask>
<g mask="url(#mask0)">
<path fill-rule="evenodd" clip-rule="evenodd" d="M71.5453 204.427L79.8765 199.412L89.5982 199.686L84.5833 191.352L84.8558 181.632L76.5236 186.648L66.8046 186.374L71.8178 194.707L71.5453 204.427Z" fill="#B2CAD4"/>
</g>
<path fill-rule="evenodd" clip-rule="evenodd" d="M18.5914 36.3109L233.467 156.136C233.949 156.405 234.559 156.233 234.827 155.748C235.09 155.276 234.929 154.68 234.467 154.404L23.2574 28.2291C21.0448 26.9055 18.1788 27.6295 16.8579 29.8414C15.536 32.055 16.2583 34.9199 18.4719 36.2419L18.5914 36.3109Z" fill="#433554"/>
<path fill-rule="evenodd" clip-rule="evenodd" d="M16.7462 29.8621C16.7722 29.817 16.7982 29.772 16.8259 29.728C18.1877 27.5373 21.0693 26.8662 23.2572 28.2287C21.0453 26.9078 18.1786 27.6291 16.8577 29.841C16.8457 29.8618 16.8329 29.8798 16.8209 29.9006C15.5479 32.1055 16.2761 34.9323 18.4717 36.2415L18.5912 36.3105L18.3262 36.1575C16.1813 34.8245 15.4932 32.0323 16.7462 29.8621Z" fill="#E0DBE5"/>
<path fill-rule="evenodd" clip-rule="evenodd" d="M16.822 29.9007C16.834 29.88 16.845 29.8609 16.857 29.8401C18.1796 27.6292 21.0456 26.9052 23.2582 28.2289L118.42 87.4037C118.861 87.6793 119.022 88.257 118.774 88.7233L118.757 88.7527C118.488 89.2187 117.897 89.3902 117.42 89.1358L18.5922 36.3106L18.471 36.2406C16.2781 34.9307 15.549 32.1056 16.822 29.9007Z" fill="#564076"/>
<mask id="mask1" mask-type="alpha" maskUnits="userSpaceOnUse" x="0" y="13" width="37" height="37">
<path fill-rule="evenodd" clip-rule="evenodd" d="M13.3706 13.001L0.1728 35.8602L23.0324 49.0582L36.2302 26.199L13.3706 13.001Z" fill="white"/>
</mask>
<g mask="url(#mask1)">
<path fill-rule="evenodd" clip-rule="evenodd" d="M11.5452 42.4266L19.8765 37.4124L29.5982 37.6859L24.5833 29.3519L24.8558 19.632L16.5236 24.6478L6.8046 24.3736L11.8177 32.7066L11.5452 42.4266Z" fill="#87759B"/>
</g>
<path fill-rule="evenodd" clip-rule="evenodd" d="M42.5909 120.312L257.466 240.137C257.948 240.406 258.559 240.232 258.826 239.749C259.09 239.275 258.928 238.681 258.466 238.405L47.2579 112.228C45.0443 110.906 42.1793 111.628 40.8574 113.842C39.5365 116.054 40.2588 118.919 42.4714 120.243L42.5909 120.312Z" fill="#BC4E35"/>
<path fill-rule="evenodd" clip-rule="evenodd" d="M40.7457 113.863C40.7717 113.818 40.7977 113.773 40.8265 113.727C42.1882 111.536 45.0688 110.867 47.2577 112.228C45.0458 110.907 42.1791 111.628 40.8572 113.842C40.8452 113.862 40.8325 113.88 40.8205 113.901C39.5475 116.106 40.2766 118.931 42.4712 120.242L42.5907 120.311L42.3257 120.158C40.1809 118.825 39.4927 116.033 40.7457 113.863Z" fill="#FDE7DD"/>
<path fill-rule="evenodd" clip-rule="evenodd" d="M40.8215 113.902C40.8335 113.882 40.8445 113.863 40.8565 113.842C42.1801 111.629 45.0451 110.907 47.2587 112.229L142.42 171.405C142.861 171.681 143.022 172.259 142.773 172.725L142.757 172.753C142.488 173.219 141.896 173.392 141.42 173.137L42.5917 120.312L42.4705 120.242C40.2777 118.932 39.5495 116.106 40.8215 113.902Z" fill="#C95F3A"/>
<mask id="mask2" mask-type="alpha" maskUnits="userSpaceOnUse" x="24" y="97" width="37" height="37">
<path fill-rule="evenodd" clip-rule="evenodd" d="M37.3706 97.001L24.1728 119.86L47.0324 133.058L60.2302 110.199L37.3706 97.001Z" fill="white"/>
</mask>
<g mask="url(#mask2)">
<path fill-rule="evenodd" clip-rule="evenodd" d="M35.5453 126.427L43.8765 121.412L53.5982 121.686L48.5823 113.354L48.8558 103.632L40.5246 108.646L30.8046 108.374L35.8178 116.707L35.5453 126.427Z" fill="#F48657"/>
</g>
<path fill-rule="evenodd" clip-rule="evenodd" d="M116.591 24.3116L331.466 144.137C331.948 144.406 332.559 144.232 332.826 143.749C333.09 143.275 332.928 142.681 332.466 142.405L121.258 16.2281C119.044 14.9062 116.179 15.6285 114.857 17.8421C113.537 20.0539 114.259 22.9189 116.471 24.2426L116.591 24.3116Z" fill="#BC4E35"/>
<path fill-rule="evenodd" clip-rule="evenodd" d="M114.746 17.8627C114.772 17.8177 114.798 17.7726 114.826 17.7269C116.188 15.5363 119.069 14.8669 121.258 16.2276C119.046 14.9067 116.179 15.628 114.857 17.8416C114.845 17.8624 114.832 17.8805 114.82 17.9012C113.547 20.1062 114.277 22.9312 116.471 24.2421L116.591 24.3111L116.326 24.1581C114.181 22.8251 113.493 20.033 114.746 17.8627Z" fill="#FDE7DD"/>
<path fill-rule="evenodd" clip-rule="evenodd" d="M114.822 17.9015C114.834 17.8807 114.845 17.8616 114.857 17.8408C116.18 15.6282 119.045 14.9059 121.259 16.2278L216.42 75.4044C216.861 75.68 217.022 76.2578 216.773 76.724L216.757 76.7517C216.488 77.2177 215.896 77.3909 215.42 77.1365L116.592 24.3113L116.47 24.2413C114.278 22.9314 113.55 20.1046 114.822 17.9015Z" fill="#C95F3A"/>
<mask id="mask3" mask-type="alpha" maskUnits="userSpaceOnUse" x="98" y="1" width="37" height="37">
<path fill-rule="evenodd" clip-rule="evenodd" d="M111.371 1.00098L98.1728 23.8602L121.032 37.0583L134.23 14.199L111.371 1.00098Z" fill="white"/>
</mask>
<g mask="url(#mask3)">
<path fill-rule="evenodd" clip-rule="evenodd" d="M109.545 30.4266L117.876 25.4124L127.598 25.6859L122.582 17.3537L122.856 7.63198L114.525 12.6461L104.805 12.3736L109.818 20.7066L109.545 30.4266Z" fill="#F48657"/>
</g>
</svg>

<?xml version="1.0" encoding="utf-8"?>
<!-- Generator: Adobe Illustrator 23.0.1, SVG Export Plug-In . SVG Version: 6.00 Build 0)  -->
<svg version="1.1" id="Layer_1" xmlns="http://www.w3.org/2000/svg" xmlns:xlink="http://www.w3.org/1999/xlink" x="0px" y="0px"
	 viewBox="0 0 339 332" style="enable-background:new 0 0 339 332;" xml:space="preserve">
<style type="text/css">
	.st0{fill-rule:evenodd;clip-rule:evenodd;fill:#60287A;}
	.st1{fill-rule:evenodd;clip-rule:evenodd;fill:#EBF1F4;}
	.st2{fill-rule:evenodd;clip-rule:evenodd;fill:#762892;}
	.st3{fill-rule:evenodd;clip-rule:evenodd;fill:#FFFFFF;filter:url(#Adobe_OpacityMaskFilter);}
	.st4{mask:url(#mask0_1_);}
	.st5{fill-rule:evenodd;clip-rule:evenodd;fill:#9128C1;}
	.st6{fill-rule:evenodd;clip-rule:evenodd;fill:#E0DBE5;}
	.st7{fill-rule:evenodd;clip-rule:evenodd;fill:#7B2892;}
	.st8{fill-rule:evenodd;clip-rule:evenodd;fill:#FFFFFF;filter:url(#Adobe_OpacityMaskFilter_1_);}
	.st9{mask:url(#mask1_1_);}
	.st10{fill-rule:evenodd;clip-rule:evenodd;fill:#A028C1;}
	.st11{fill-rule:evenodd;clip-rule:evenodd;fill:#287A49;}
	.st12{fill-rule:evenodd;clip-rule:evenodd;fill:#FDE7DD;}
	.st13{fill-rule:evenodd;clip-rule:evenodd;fill:#289249;}
	.st14{fill-rule:evenodd;clip-rule:evenodd;fill:#FFFFFF;filter:url(#Adobe_OpacityMaskFilter_2_);}
	.st15{mask:url(#mask2_1_);}
	.st16{fill-rule:evenodd;clip-rule:evenodd;fill:#28C157;}
	.st17{fill-rule:evenodd;clip-rule:evenodd;fill:#FFFFFF;filter:url(#Adobe_OpacityMaskFilter_3_);}
	.st18{mask:url(#mask3_1_);}
</style>
<path class="st0" d="M78.59,198.31l214.88,119.82c0.48,0.27,1.09,0.1,1.36-0.39c0.26-0.47,0.1-1.07-0.36-1.34L83.26,190.23
	c-2.21-1.32-5.08-0.6-6.4,1.61c-1.32,2.21-0.6,5.08,1.61,6.4L78.59,198.31z"/>
<path class="st1" d="M76.75,191.86c0.03-0.04,0.05-0.09,0.08-0.13c1.36-2.19,4.24-2.86,6.43-1.5c-2.21-1.32-5.08-0.6-6.4,1.61
	c-0.01,0.02-0.02,0.04-0.04,0.06c-1.27,2.21-0.54,5.03,1.65,6.34l0.12,0.07l-0.26-0.15C76.18,196.82,75.49,194.03,76.75,191.86z"/>
<path class="st2" d="M76.82,191.9c0.01-0.02,0.02-0.04,0.04-0.06c1.32-2.21,4.19-2.93,6.4-1.61l95.16,59.18
	c0.44,0.27,0.6,0.85,0.35,1.32l-0.02,0.03c-0.27,0.47-0.86,0.64-1.34,0.38l-98.83-52.82l-0.12-0.07
	C76.28,196.93,75.55,194.11,76.82,191.9z"/>
<defs>
	<filter id="Adobe_OpacityMaskFilter" filterUnits="userSpaceOnUse" x="66.8" y="181.63" width="22.79" height="22.79">
		<feColorMatrix  type="matrix" values="1 0 0 0 0  0 1 0 0 0  0 0 1 0 0  0 0 0 1 0"/>
	</filter>
</defs>
<mask maskUnits="userSpaceOnUse" x="66.8" y="181.63" width="22.79" height="22.79" id="mask0_1_">
	<path class="st3" d="M73.37,175l-13.2,22.86l22.86,13.2l13.2-22.86L73.37,175z"/>
</mask>
<g class="st4">
	<path class="st5" d="M71.55,204.43l8.33-5.01l9.72,0.27l-5.01-8.33l0.27-9.72l-8.33,5.02l-9.72-0.27l5.01,8.33L71.55,204.43z"/>
</g>
<path class="st0" d="M18.59,36.31l214.88,119.83c0.48,0.27,1.09,0.1,1.36-0.39c0.26-0.47,0.1-1.07-0.36-1.34L23.26,28.23
	c-2.21-1.32-5.08-0.6-6.4,1.61c-1.32,2.21-0.6,5.08,1.61,6.4L18.59,36.31z"/>
<path class="st6" d="M16.75,29.86c0.03-0.05,0.05-0.09,0.08-0.13c1.36-2.19,4.24-2.86,6.43-1.5c-2.21-1.32-5.08-0.6-6.4,1.61
	c-0.01,0.02-0.02,0.04-0.04,0.06c-1.27,2.2-0.54,5.03,1.65,6.34l0.12,0.07l-0.26-0.15C16.18,34.82,15.49,32.03,16.75,29.86z"/>
<path class="st7" d="M16.82,29.9c0.01-0.02,0.02-0.04,0.03-0.06c1.32-2.21,4.19-2.93,6.4-1.61l95.16,59.17
	c0.44,0.28,0.6,0.85,0.35,1.32l-0.02,0.03c-0.27,0.47-0.86,0.64-1.34,0.38L18.59,36.31l-0.12-0.07
	C16.28,34.93,15.55,32.11,16.82,29.9z"/>
<defs>
	<filter id="Adobe_OpacityMaskFilter_1_" filterUnits="userSpaceOnUse" x="6.8" y="19.63" width="22.79" height="22.79">
		<feColorMatrix  type="matrix" values="1 0 0 0 0  0 1 0 0 0  0 0 1 0 0  0 0 0 1 0"/>
	</filter>
</defs>
<mask maskUnits="userSpaceOnUse" x="6.8" y="19.63" width="22.79" height="22.79" id="mask1_1_">
	<path class="st8" d="M13.37,13L0.17,35.86l22.86,13.2l13.2-22.86L13.37,13z"/>
</mask>
<g class="st9">
	<path class="st10" d="M11.55,42.43l8.33-5.01l9.72,0.27l-5.01-8.33l0.27-9.72l-8.33,5.02L6.8,24.37l5.01,8.33L11.55,42.43z"/>
</g>
<path class="st11" d="M42.59,120.31l214.88,119.82c0.48,0.27,1.09,0.1,1.36-0.39c0.26-0.47,0.1-1.07-0.36-1.34L47.26,112.23
	c-2.21-1.32-5.08-0.6-6.4,1.61c-1.32,2.21-0.6,5.08,1.61,6.4L42.59,120.31z"/>
<path class="st12" d="M40.75,113.86c0.03-0.04,0.05-0.09,0.08-0.14c1.36-2.19,4.24-2.86,6.43-1.5c-2.21-1.32-5.08-0.6-6.4,1.61
	c-0.01,0.02-0.02,0.04-0.04,0.06c-1.27,2.21-0.54,5.03,1.65,6.34l0.12,0.07l-0.26-0.15C40.18,118.82,39.49,116.03,40.75,113.86z"/>
<path class="st13" d="M40.82,113.9c0.01-0.02,0.02-0.04,0.03-0.06c1.32-2.21,4.19-2.94,6.4-1.61l95.16,59.18
	c0.44,0.28,0.6,0.85,0.35,1.32l-0.02,0.03c-0.27,0.47-0.86,0.64-1.34,0.38l-98.83-52.82l-0.12-0.07
	C40.28,118.93,39.55,116.11,40.82,113.9z"/>
<defs>
	<filter id="Adobe_OpacityMaskFilter_2_" filterUnits="userSpaceOnUse" x="30.8" y="103.63" width="22.79" height="22.79">
		<feColorMatrix  type="matrix" values="1 0 0 0 0  0 1 0 0 0  0 0 1 0 0  0 0 0 1 0"/>
	</filter>
</defs>
<mask maskUnits="userSpaceOnUse" x="30.8" y="103.63" width="22.79" height="22.79" id="mask2_1_">
	<path class="st14" d="M37.37,97l-13.2,22.86l22.86,13.2l13.2-22.86L37.37,97z"/>
</mask>
<g class="st15">
	<path class="st16" d="M35.55,126.43l8.33-5.01l9.72,0.27l-5.02-8.33l0.27-9.72l-8.33,5.01l-9.72-0.27l5.01,8.33L35.55,126.43z"/>
</g>
<path class="st11" d="M116.59,24.31l214.88,119.83c0.48,0.27,1.09,0.1,1.36-0.39c0.26-0.47,0.1-1.07-0.36-1.34L121.26,16.23
	c-2.21-1.32-5.08-0.6-6.4,1.61c-1.32,2.21-0.6,5.08,1.61,6.4L116.59,24.31z"/>
<path class="st12" d="M114.75,17.86c0.03-0.05,0.05-0.09,0.08-0.14c1.36-2.19,4.24-2.86,6.43-1.5c-2.21-1.32-5.08-0.6-6.4,1.61
	c-0.01,0.02-0.03,0.04-0.04,0.06c-1.27,2.2-0.54,5.03,1.65,6.34l0.12,0.07l-0.27-0.15C114.18,22.83,113.49,20.03,114.75,17.86z"/>
<path class="st13" d="M114.82,17.9c0.01-0.02,0.02-0.04,0.04-0.06c1.32-2.21,4.19-2.93,6.4-1.61l95.16,59.18
	c0.44,0.28,0.6,0.85,0.35,1.32l-0.02,0.03c-0.27,0.47-0.86,0.64-1.34,0.38l-98.83-52.83l-0.12-0.07
	C114.28,22.93,113.55,20.1,114.82,17.9z"/>
<defs>
	<filter id="Adobe_OpacityMaskFilter_3_" filterUnits="userSpaceOnUse" x="104.81" y="7.63" width="22.79" height="22.79">
		<feColorMatrix  type="matrix" values="1 0 0 0 0  0 1 0 0 0  0 0 1 0 0  0 0 0 1 0"/>
	</filter>
</defs>
<mask maskUnits="userSpaceOnUse" x="104.81" y="7.63" width="22.79" height="22.79" id="mask3_1_">
	<path class="st17" d="M111.37,1l-13.2,22.86l22.86,13.2l13.2-22.86L111.37,1z"/>
</mask>
<g class="st18">
	<path class="st16" d="M109.54,30.43l8.33-5.01l9.72,0.27l-5.02-8.33l0.27-9.72l-8.33,5.01l-9.72-0.27l5.01,8.33L109.54,30.43z"/>
</g>
</svg>
